X: 38523
T: Stenselepolskan
R: three-two
M: 3/2
K: Gminor
M:3/4
[G,D]B BA/B/ c/B/A/G/|FA AG/A/ B/A/G/F/|EE/F/ GG/A/ BA/G/|^F/G/A/F/ GD B,/C/B,/A,/|
[G,D]B BA/B/ c/B/A/G/|FA AG/A/ B/A/G/F/|EE/F/ GG/A/ BA/G/|^F/G/A/F/ G4:|
|:Dd d^c/d/ ed|Dc cB/c/ d/c/B/A/|G/^F/G/A/ B/A/B/c/ dd|[M:4/4] ^cA/c/ d2 d/=c/B/A/ G/^F/=E/D/|
[M:3/4]Dd d^c/d/ ed|Dc cB/c/ d/c/B/A/|G/^F/G/A/ B/A/B/c/ d/^c/d/e/|d^F G4:|

